public/assets/icons/female.svg

<?xml version="1.0" encoding="UTF-8" standalone="no"?>
<svg width="37px" height="48px" viewBox="0 0 37 48" version="1.1" xmlns="http://www.w3.org/2000/svg" xmlns:xlink="http://www.w3.org/1999/xlink" xmlns:sketch="http://www.bohemiancoding.com/sketch/ns">
    <!-- Generator: Sketch 3.5.2 (25235) - http://www.bohemiancoding.com/sketch -->
    <title>Shape</title>
    <desc>Created with Sketch.</desc>
    <defs></defs>
    <g id="Welcome" stroke="none" stroke-width="1" fill="none" fill-rule="evenodd" sketch:type="MSPage">
        <g id="Desktop-HD-Copy-2" sketch:type="MSArtboardGroup" transform="translate(-836.000000, -413.000000)" fill="#1B374B">
            <g id="woman104" sketch:type="MSLayerGroup" transform="translate(827.000000, 406.000000)">
                <g transform="translate(9.000000, 7.000000)" id="Capa_1" sketch:type="MSShapeGroup">
                    <g>
                        <path d="M30.9300672,30.4030189 C31.003699,30.149434 31.0773308,29.8687698 31.1324627,29.5517887 C31.1877786,29.2891472 31.2337985,29.0083925 31.2889303,28.6914113 C31.6847015,26.2279245 31.8871891,22.3426415 31.8871891,16.5011321 C31.8871891,7.38113208 25.87699,0 18.4677861,0 C15.7710199,0 13.2583333,0.987169811 11.1598259,2.68075472 C10.7916667,2.93433962 10.4695274,3.21509434 10.2026119,3.52301887 C7.07325871,6.54792453 5.04838308,11.2301887 5.04838308,16.5192453 C5.04838308,22.7139623 5.28768657,26.7169811 5.72027363,29.1350943 C5.77549751,29.4429283 5.83072139,29.7237736 5.89514925,29.9863245 C5.96878109,30.3033057 6.05161692,30.5841509 6.13445274,30.8286792 C2.64614428,33.0928302 0.0138059701,36.5614189 0.0138059701,39.6768906 L0.0138059701,47.9366038 L36.9217662,47.9366038 L36.9217662,39.6768906 C36.9217662,36.3350038 34.5379353,32.64 30.9300672,30.4030189 L30.9300672,30.4030189 Z M9.63196517,16.2384906 L9.08893035,16.1660377 C8.42624378,16.0754717 7.57947761,15.3328302 7.26654229,14.1011321 C7.04564677,13.2679245 7.12848259,12.4166038 7.48743781,11.8369811 C7.60708955,11.6196226 7.84639303,11.3479245 8.19614428,11.2664151 C8.25136816,11.2573585 8.30659204,11.2483019 8.38022388,11.2483019 C8.43544776,11.2483019 8.47226368,11.2483019 8.52748756,11.2573585 L9.30982587,11.3298113 L9.42027363,10.56 C9.52151741,9.91698113 9.65957711,9.30113208 9.84365672,8.71245283 C10.8192786,11.8188679 13.5252488,11.4837736 17.4369403,11.9728302 C18.6518657,12.1267925 20.1337065,12.2083019 20.9804726,12.1901887 C21.1278284,9.76301887 18.2652985,7.04603774 18.2652985,7.04603774 C18.2652985,7.04603774 18.3297264,7.00981132 18.6242537,7.03698113 C19.0476368,7.09132075 19.9495348,7.39924528 20.1429104,7.52603774 C23.2722637,9.24679245 23.8705224,11.7373585 23.9165423,11.8279245 C25.5179428,11.4022642 26.7237562,10.5781132 27.2023632,9.15622642 C27.3220149,9.6090566 27.4416667,10.0890566 27.5152065,10.5781132 L27.6256542,11.3479245 L28.4079925,11.2754717 C28.5184403,11.2664151 28.647296,11.2664151 28.7301318,11.2845283 C29.0798831,11.3660377 29.3099826,11.6377358 29.4388383,11.8550943 C29.7885896,12.434717 29.8714254,13.2769811 29.6596418,14.1192453 C29.3375025,15.3690566 28.4908284,16.1116981 27.8372537,16.1841509 L27.2943109,16.2566038 L27.1469552,16.7818868 C26.2909851,19.8158491 24.487097,22.9675472 22.2321219,24.7787774 C21.0632164,25.7026415 19.8022711,26.2822642 18.467694,26.2822642 C17.1331169,26.2822642 15.8629677,25.7116981 14.7032662,24.7787774 C12.448291,22.9856604 10.6443109,19.8248151 9.7883408,16.7818868 L9.63196517,16.2384906 L9.63196517,16.2384906 Z M24.2939055,33.3555623 C21.1001244,35.0128302 18.955597,36.3350038 18.7162935,36.3442415 C17.6762438,36.2083925 12.7797264,33.4008453 12.7797264,33.4008453 C11.564801,32.7759396 10.8284826,32.4226415 9.43868159,31.1184906 C9.61355721,30.9012226 10.2854478,29.9864151 10.4603234,29.7509434 C10.635199,29.5335849 10.8100746,29.3162264 10.9849502,29.0807547 C11.7764925,28.0665057 12.6324627,26.9433962 13.5344527,25.9382038 C15.0070896,27.1427321 16.6822139,27.8853736 18.4585821,27.8853736 C20.2349502,27.8853736 21.9100746,27.1335849 23.3827114,25.9382038 C24.514801,27.2061283 25.5916667,28.6642415 26.5487886,29.8597132 C26.7328682,30.0952755 26.9169478,30.3125434 27.0918234,30.5208453 C27.285107,30.756317 27.4691866,30.9646189 27.6624701,31.1638642 C26.9539478,32.0876377 25.2603234,32.8483019 24.2939055,33.3555623 L24.2939055,33.3555623 Z" id="Shape"></path>
                    </g>
                </g>
            </g>
        </g>
    </g>
</svg>

<svg width="55" height="55" viewBox="0 0 55 55" xmlns="http://www.w3.org/2000/svg" xmlns:xlink="http://www.w3.org/1999/xlink"><title>woman104</title><defs><circle id="a" cx="27.5" cy="27.5" r="27.5"/></defs><g fill="none" fill-rule="evenodd"><mask id="b" fill="#fff"><use xlink:href="#a"/></mask><use fill="#FFF" xlink:href="#a"/><path d="M30.93 30.403a7.8 7.8 0 0 0 .202-.85c.056-.264.102-.545.157-.862.395-2.462.597-6.347.597-12.19 0-9.12-6.01-16.5-13.42-16.5-2.696 0-5.21.987-7.307 2.68a5.05 5.05 0 0 0-.957.843C7.073 6.548 5.048 11.23 5.048 16.52c0 6.194.24 10.197.672 12.615.055.308.11.59.175.85.074.318.157.6.24.844-3.49 2.263-6.12 5.73-6.12 8.847v8.26H36.92v-8.26c0-3.342-2.384-7.037-5.992-9.274zM9.632 16.238l-.543-.072c-.664-.09-1.51-.833-1.823-2.065-.22-.832-.14-1.683.22-2.263.12-.217.36-.49.71-.57.054-.01.11-.02.183-.02.055 0 .092 0 .147.01l.783.073.11-.77c.102-.643.24-1.26.424-1.848.975 3.107 3.68 2.772 7.593 3.26 1.215.155 2.697.236 3.543.218.148-2.427-2.715-5.144-2.715-5.144s.065-.036.36-.01c.423.055 1.325.363 1.518.49 3.13 1.72 3.728 4.21 3.774 4.302 1.6-.426 2.807-1.25 3.285-2.672.12.453.24.933.313 1.422l.11.77.783-.073c.11-.01.24-.01.322.01.35.08.58.353.71.57.35.58.43 1.422.22 2.264-.322 1.25-1.17 1.992-1.823 2.064l-.543.073-.147.525c-.856 3.034-2.66 6.186-4.915 7.997-1.17.923-2.43 1.502-3.764 1.502-1.335 0-2.605-.57-3.765-1.503-2.255-1.794-4.06-4.955-4.915-7.998l-.156-.544zm14.662 17.118c-3.194 1.657-5.338 2.98-5.578 2.988-1.04-.136-5.936-2.943-5.936-2.943-1.215-.624-1.952-.977-3.34-2.282.174-.217.845-1.132 1.02-1.367.175-.216.35-.434.525-.67.79-1.013 1.647-2.137 2.55-3.142 1.472 1.205 3.147 1.947 4.924 1.947 1.775 0 3.45-.75 4.923-1.947 1.132 1.268 2.21 2.726 3.166 3.922.183.235.367.453.542.66.193.236.377.445.57.644-.708.924-2.402 1.684-3.368 2.192z" fill="#1B374B" transform="translate(9 7)" mask="url(#b)"/></g></svg>
